X: 43
T: Yellowjacket
C:Garry Harrison
B: canberra pickers and fiddlers
B: tunes
M:4/4
Q: 1/4=100
K:A
V:1 
CB,|:"A" A,2 CE FAEA |"A" FAAc BAcA |"A" faec BAcA|"E" B3 c BACB, | 
"A" A,2 CE FAEA |"A" FAAc BAcA |"A" faec "E" BABc |1 "A" A3 A A2 CB, :|2 "A" A3 A2 Bce | 
|: "D" e f2 f f2 (f2 |"D" f) efga z (a2 |"A" a)baf ecAc | "E" B3 c B2 CB, |"A" A,2 CE FAEA |
"A" FAAc BAcA |"A" faec "E" BABc |1 "A" A3 A AB cA :|2 "A" A3 A A4 |]
% abcbook-tune_id 63da5934157d7d1f3f6f8bd3
% abcbook-tune_composer_id 
% abcbook-link-0 https://www.youtube.com/watch?v=tkNkst8bBpE
% abcbook-boost 10
% abcbook-difficulty 0
% abcbook-tags canberra pickers and fiddlers,old time tunes,© free
% abcbook-tablature 
% abcbook-transpose 
% abcbook-tuning AEAE
% abcbook-lastupdated 1729081003552
% abcbook-src-url https://tunebook.net/scrape/tunes.abc
% abcbook-soundfonts 
% abcbook-repeats 1
%%gchordfont "itim-music,Itim" 20

